library/css/icons/svgs/fi-page-pdf.svg

<svg xmlns="http://www.w3.org/2000/svg" width="100" height="100" viewBox="0 0 100 100"><path d="M41.131 61.862h-4.927v9.231h2.796v-2.906h2.131c2.159 0 3.321-1.439 3.321-3.156.001-1.73-1.162-3.169-3.321-3.169zm-.36 3.889h-1.771v-1.453h1.771c.471 0 .844.235.844.733.001.485-.373.72-.844.72zM50.032 61.862h-4.124v9.231h4.138c2.893 0 5.052-1.675 5.052-4.623s-2.16-4.608-5.066-4.608zm0 6.796h-1.329v-4.36h1.342c1.495 0 2.214.927 2.214 2.173.001 1.162-.829 2.187-2.227 2.187zM56.792 71.093h2.796v-3.446h4.11v-2.436h-4.11v-.913h4.207v-2.436h-7.003zM80.277 12.5h-.005v-4.02c0-.956-.774-1.73-1.73-1.73h-32.87l-25.95 25.95v58.819c0 .956.774 1.73 1.73 1.73h57.09c.956 0 1.73-.774 1.73-1.73v-2.448h.005v-76.571zm-50.598 70.794v-47.134h17.723c.956 0 1.73-.774 1.73-1.73v-17.723h21.188v66.587h-40.641z"/></svg>

<?xml version="1.0" encoding="utf-8"?>
<!-- Generator: Adobe Illustrator 17.0.0, SVG Export Plug-In . SVG Version: 6.00 Build 0)  -->
<!DOCTYPE svg PUBLIC "-//W3C//DTD SVG 1.1//EN" "http://www.w3.org/Graphics/SVG/1.1/DTD/svg11.dtd">
<svg version="1.1" id="Layer_1" xmlns="http://www.w3.org/2000/svg" xmlns:xlink="http://www.w3.org/1999/xlink" x="0px" y="0px"
	 width="100px" height="100px" viewBox="0 0 100 100" enable-background="new 0 0 100 100" xml:space="preserve">
<g>
	<path d="M41.131,61.862h-4.927v9.231H39v-2.906h2.131c2.159,0,3.321-1.439,3.321-3.156C44.453,63.301,43.29,61.862,41.131,61.862z
		 M40.771,65.751H39v-1.453h1.771c0.471,0,0.844,0.235,0.844,0.733C41.616,65.516,41.242,65.751,40.771,65.751z"/>
	<path d="M50.032,61.862h-4.124v9.231h4.138c2.893,0,5.052-1.675,5.052-4.623S52.938,61.862,50.032,61.862z M50.032,68.658h-1.329
		v-4.36h1.342c1.495,0,2.214,0.927,2.214,2.173C52.26,67.633,51.43,68.658,50.032,68.658z"/>
	<polygon points="56.792,71.093 59.588,71.093 59.588,67.647 63.698,67.647 63.698,65.211 59.588,65.211 59.588,64.298 
		63.795,64.298 63.795,61.862 56.792,61.862 	"/>
	<path d="M80.277,12.5h-0.005V8.48c0-0.956-0.774-1.73-1.73-1.73h-2.45v0H47.402v0h-1.73L19.722,32.7v2.447v1.013v52.912v2.447
		c0,0.956,0.774,1.73,1.73,1.73h1.582H76.96h1.582c0.956,0,1.73-0.774,1.73-1.73v-2.448h0.005L80.277,12.5z M29.679,83.294V36.16
		h17.723c0.956,0,1.73-0.774,1.73-1.73V16.707h21.188l0,66.587H29.679z"/>
</g>
</svg>
